X:100
T:Cuckoo's Nest, The
S:Grey Larsen on his album The Green House
N:As he learned it from Michael J. Kennedy. First part only transcribed here by Alan Ng.
Z: id:ng-other-20 Transcribed by Alan Ng alan@alan-ng.net 12 Apr. 2002
K:GMaj
M:3/4
|A2 GD GA|dB AG Gg|ga ag g2|dz gz de|dB GB de|dB (3ABA GD|GA dB AG|Gg ga ag|g2 df gz|de dB GA|cA G2 G2:|
M:2/2
|"or, less suitably notated as:"A2GD GAdB|AGGg gaag|g2dzgzde|dBGB dedB|(3ABAGD GAdB|AGGg gaag|g2df gzde|dBGA cAG2|G2:|
